images/talk-telega.svg

<svg width="680" height="284" viewBox="0 0 680 284" fill="none" xmlns="http://www.w3.org/2000/svg">
<path fill-rule="evenodd" clip-rule="evenodd" d="M529.379 191.493C542.225 200.197 558.244 202.038 577.437 197.017C596.683 191.982 609.776 182.525 616.714 168.645C623.691 154.697 624.284 136.651 618.492 114.51C612.713 92.4221 603.423 77.1095 590.62 68.5711C577.817 60.0329 561.765 58.2883 542.465 63.3373C523.219 68.3724 510.105 77.7469 503.123 91.4609C496.196 105.161 495.621 123.054 501.399 145.142C501.55 145.716 501.702 146.286 501.857 146.851C502.874 150.558 507.182 152.103 510.438 150.06L524.046 141.524C526.808 139.792 527.657 136.156 525.947 133.38L514.171 114.259C511.361 109.226 510.121 104.814 510.449 101.02C510.832 97.2125 512.619 94.2732 515.811 92.2025C519.057 90.1175 523.094 89.4143 527.925 90.0926L597.225 99.4167C601.621 99.9733 604.615 101.868 606.207 105.1C607.839 108.263 607.711 111.945 605.823 116.146L576.412 181.572C575.057 184.516 573.01 186.464 570.272 187.415C567.588 188.353 564.86 188.243 562.087 187.085C559.314 185.928 557.123 184.029 555.513 181.39L543.586 162.023C541.857 159.214 538.169 158.353 535.375 160.106L518.167 170.901C515.401 172.636 514.53 176.301 516.479 178.921C520.289 184.039 524.589 188.23 529.379 191.493Z" fill="#E6EEFF" fill-opacity="0.6"/>
</svg>

<svg width="680" height="284" fill="none" xmlns="http://www.w3.org/2000/svg"><path fill-rule="evenodd" clip-rule="evenodd" d="M529.379 191.493c12.846 8.704 28.865 10.545 48.058 5.524 19.246-5.035 32.339-14.492 39.277-28.372 6.977-13.948 7.57-31.994 1.778-54.135-5.779-22.088-15.069-37.4-27.872-45.939-12.803-8.538-28.855-10.283-48.155-5.234-19.246 5.035-32.36 14.41-39.342 28.124-6.927 13.7-7.502 31.593-1.724 53.681.151.574.303 1.144.458 1.709 1.017 3.707 5.325 5.252 8.581 3.209l13.608-8.536a5.938 5.938 0 001.901-8.144l-11.776-19.121c-2.81-5.033-4.05-9.445-3.722-13.239.383-3.807 2.17-6.747 5.362-8.817 3.246-2.085 7.283-2.789 12.114-2.11l69.3 9.324c4.396.556 7.39 2.451 8.982 5.683 1.632 3.163 1.504 6.845-.384 11.046l-29.411 65.426c-1.355 2.944-3.402 4.892-6.14 5.843-2.684.938-5.412.828-8.185-.33-2.773-1.157-4.964-3.056-6.574-5.695l-11.927-19.367a5.937 5.937 0 00-8.211-1.917l-17.208 10.795c-2.766 1.735-3.637 5.4-1.688 8.02 3.81 5.118 8.11 9.309 12.9 12.572z" fill="#E6EEFF" fill-opacity=".6"/></svg>
